X:28
T:Remal3 Bly, The
T:Pad in cormie
T:Eline Borndo Barrrom's
R:polka
Z:id:hn-polka-78
M:2/4
L:1/8
K:G
de/f/ f>e|dB A>B|e2 fd|e/f/g/g/ af|ed ed/e/|ed B>d|ed ed|gB B'/b/a/b|be f/g/e/d/|dA AB:|
`

This is a good one
%
